assets/img/logo.svg

<svg width="94" height="34" viewBox="0 0 94 34" fill="none" xmlns="http://www.w3.org/2000/svg">
<path d="M89 27C87.5985 27 86.4148 26.5211 85.4489 25.5632C84.483 24.6054 84 23.4176 84 22C84 20.5824 84.483 19.3946 85.4489 18.4368C86.4148 17.4789 87.5985 17 89 17C90.4015 17 91.5852 17.4789 92.5511 18.4368C93.517 19.3946 94 20.5824 94 22C94 23.4176 93.517 24.6054 92.5511 25.5632C91.5852 26.5211 90.4015 27 89 27Z" fill="#FF6B00"/>
<path d="M6.5625 6.62891L10.7188 20.9844H10.8828L15.0664 6.62891H21.3008L14.5742 27H7.02734L0.300781 6.62891H6.5625ZM22.668 27V11.7148H28.1641V27H22.668ZM25.4023 10.1562C24.6549 10.1562 24.0169 9.91016 23.4883 9.41797C22.9596 8.92578 22.6953 8.33333 22.6953 7.64062C22.6953 6.9388 22.9596 6.34635 23.4883 5.86328C24.0169 5.37109 24.6549 5.125 25.4023 5.125C26.1497 5.125 26.7878 5.37109 27.3164 5.86328C27.8451 6.34635 28.1094 6.93424 28.1094 7.62695C28.1094 8.32878 27.8451 8.92578 27.3164 9.41797C26.7878 9.91016 26.1497 10.1562 25.4023 10.1562ZM35.0273 11.7148L37.2422 16.4727L39.5938 11.7148H45.0625L40.9609 19.3711L45.2539 27H39.8398L37.2422 22.1602L34.7539 27H29.2578L33.6055 19.3711L29.5312 11.7148H35.0273ZM50.5039 27.2461C49.5286 27.2461 48.6628 27.0866 47.9062 26.7676C47.1589 26.4395 46.5755 25.9473 46.1562 25.291C45.737 24.6348 45.5273 23.8008 45.5273 22.7891C45.5273 21.9505 45.6686 21.235 45.9512 20.6426C46.2337 20.0501 46.6302 19.5671 47.1406 19.1934C47.651 18.8105 48.2435 18.5189 48.918 18.3184C49.6016 18.1087 50.3398 17.9766 51.1328 17.9219C51.9896 17.8581 52.6732 17.7806 53.1836 17.6895C53.7031 17.5983 54.0768 17.4661 54.3047 17.293C54.5417 17.1107 54.6602 16.8737 54.6602 16.582V16.5273C54.6602 16.1354 54.5098 15.8346 54.209 15.625C53.9082 15.4062 53.5208 15.2969 53.0469 15.2969C52.5182 15.2969 52.0898 15.4108 51.7617 15.6387C51.4336 15.8665 51.2331 16.2174 51.1602 16.6914H46.1289C46.1927 15.7617 46.4844 14.9049 47.0039 14.1211C47.5326 13.3372 48.3027 12.7083 49.3145 12.2344C50.3353 11.7604 51.6068 11.5234 53.1289 11.5234C54.2135 11.5234 55.1888 11.651 56.0547 11.9062C56.9206 12.1615 57.6589 12.5169 58.2695 12.9727C58.8802 13.4284 59.3451 13.9616 59.6641 14.5723C59.9922 15.1738 60.1562 15.8255 60.1562 16.5273V27H55.0156V24.8398H54.9062C54.5964 25.4141 54.2227 25.8789 53.7852 26.2344C53.3568 26.5807 52.8691 26.8359 52.3223 27C51.7754 27.1641 51.1693 27.2461 50.5039 27.2461ZM52.2812 23.7734C52.7005 23.7734 53.0924 23.6868 53.457 23.5137C53.8307 23.3405 54.1315 23.0944 54.3594 22.7754C54.5964 22.4473 54.7148 22.0508 54.7148 21.5859V20.3281C54.569 20.3828 54.4141 20.4375 54.25 20.4922C54.0859 20.5469 53.9082 20.597 53.7168 20.6426C53.5345 20.6882 53.3431 20.7292 53.1426 20.7656C52.9512 20.8021 52.7461 20.8385 52.5273 20.875C52.099 20.9388 51.748 21.0482 51.4746 21.2031C51.2103 21.349 51.0143 21.5312 50.8867 21.75C50.7591 21.9596 50.6953 22.1966 50.6953 22.4609C50.6953 22.8893 50.8411 23.2174 51.1328 23.4453C51.4336 23.6641 51.8164 23.7734 52.2812 23.7734ZM67.7852 18.4141V27H62.2891V11.7148H67.7305V14.6406H67.8398C68.1771 13.6654 68.7285 12.9043 69.4941 12.3574C70.2689 11.8014 71.2214 11.5234 72.3516 11.5234C73.4362 11.5234 74.375 11.7695 75.168 12.2617C75.9701 12.7539 76.5898 13.4329 77.0273 14.2988C77.4648 15.1647 77.6836 16.1536 77.6836 17.2656V27H72.1875V18.4141C72.1875 17.6576 71.9961 17.0651 71.6133 16.6367C71.2305 16.1992 70.6927 15.9805 70 15.9805C69.5534 15.9805 69.1615 16.0807 68.8242 16.2812C68.4961 16.4727 68.2409 16.7507 68.0586 17.1152C67.8763 17.4707 67.7852 17.9036 67.7852 18.4141Z" fill="#101010"/>
</svg>

<?xml version="1.0" encoding="UTF-8"?>
<svg id="Layer_1" xmlns="http://www.w3.org/2000/svg" version="1.1" viewBox="0 0 94 34">
  <!-- Generator: Adobe Illustrator 29.2.1, SVG Export Plug-In . SVG Version: 2.1.0 Build 116)  -->
  <defs>
    <style>
      .st0 {
        fill: #ff6b00;
      }

      .st1 {
        fill: #101010;
      }
    </style>
  </defs>
  <path class="st0" d="M89,27c-1.4,0-2.6-.5-3.6-1.4-1-1-1.4-2.1-1.4-3.6s.5-2.6,1.4-3.6c1-1,2.1-1.4,3.6-1.4s2.6.5,3.6,1.4c1,1,1.4,2.1,1.4,3.6s-.5,2.6-1.4,3.6c-1,1-2.1,1.4-3.6,1.4Z"/>
  <path class="st1" d="M6.6,6.6l4.2,14.4h.2l4.2-14.4h6.2l-6.7,20.4h-7.5L.3,6.6h6.3ZM22.7,27v-15.3h5.5v15.3h-5.5ZM25.4,10.2c-.7,0-1.4-.2-1.9-.7-.5-.5-.8-1.1-.8-1.8s.3-1.3.8-1.8c.5-.5,1.2-.7,1.9-.7s1.4.2,1.9.7c.5.5.8,1.1.8,1.8s-.3,1.3-.8,1.8c-.5.5-1.2.7-1.9.7ZM35,11.7l2.2,4.8,2.4-4.8h5.5l-4.1,7.7,4.3,7.6h-5.4l-2.6-4.8-2.5,4.8h-5.5l4.3-7.6-4.1-7.7h5.5ZM50.5,27.2c-1,0-1.8-.2-2.6-.5-.7-.3-1.3-.8-1.8-1.5-.4-.7-.6-1.5-.6-2.5s.1-1.6.4-2.1c.3-.6.7-1.1,1.2-1.4.5-.4,1.1-.7,1.8-.9.7-.2,1.4-.3,2.2-.4.9,0,1.5-.1,2.1-.2.5,0,.9-.2,1.1-.4.2-.2.4-.4.4-.7h0c0-.4-.2-.7-.5-1-.3-.2-.7-.3-1.2-.3s-1,.1-1.3.3c-.3.2-.5.6-.6,1.1h-5c0-.9.4-1.8.9-2.6.5-.8,1.3-1.4,2.3-1.9,1-.5,2.3-.7,3.8-.7s2.1.1,2.9.4c.9.3,1.6.6,2.2,1.1.6.5,1.1,1,1.4,1.6.3.6.5,1.3.5,2v10.5h-5.1v-2.2h-.1c-.3.6-.7,1-1.1,1.4-.4.3-.9.6-1.5.8-.5.2-1.2.2-1.8.2ZM52.3,23.8c.4,0,.8,0,1.2-.3.4-.2.7-.4.9-.7.2-.3.4-.7.4-1.2v-1.3c-.1,0-.3.1-.5.2-.2,0-.3.1-.5.2-.2,0-.4,0-.6.1-.2,0-.4,0-.6.1-.4,0-.8.2-1.1.3-.3.1-.5.3-.6.5-.1.2-.2.4-.2.7,0,.4.1.8.4,1,.3.2.7.3,1.1.3ZM67.8,18.4v8.6h-5.5v-15.3h5.4v2.9h.1c.3-1,.9-1.7,1.7-2.3.8-.6,1.7-.8,2.9-.8s2,.2,2.8.7c.8.5,1.4,1.2,1.9,2,.4.9.7,1.9.7,3v9.7h-5.5v-8.6c0-.8-.2-1.3-.6-1.8-.4-.4-.9-.7-1.6-.7s-.8.1-1.2.3c-.3.2-.6.5-.8.8-.2.4-.3.8-.3,1.3Z"/>
</svg>
